frontend/src/assets/clock.svg

<svg width="13" height="14" viewBox="0 0 13 14" fill="none" xmlns="http://www.w3.org/2000/svg">
<path d="M0.91092 2.74052C1.01304 2.74052 1.08788 2.72738 1.18303 2.65521L3.46061 0.996423C3.57637 0.9181 3.63758 0.812922 3.63758 0.701591C3.63758 0.563965 3.5694 0.452633 3.45394 0.347456C3.19575 0.124513 2.73304 3.43842e-05 2.32545 3.43842e-05C2.0741 -0.00145071 1.82495 0.0451854 1.59243 0.137239C1.35992 0.229293 1.14866 0.364934 0.970915 0.536299C0.793168 0.707664 0.652465 0.911344 0.556962 1.13553C0.461459 1.35972 0.413056 1.59996 0.414558 1.84232C0.414558 2.08484 0.455462 2.32737 0.523346 2.47814C0.598192 2.64206 0.747884 2.74052 0.91092 2.74052ZM12.0821 2.74052C12.2521 2.74052 12.3882 2.63563 12.4697 2.47814C12.5445 2.33408 12.5852 2.08484 12.5852 1.84232C12.5852 0.819636 11.7352 3.43842e-05 10.6679 3.43842e-05C10.2667 3.43842e-05 9.80454 0.124513 9.54606 0.347456C9.43031 0.452354 9.36242 0.563965 9.36242 0.701591C9.36242 0.812922 9.42363 0.91782 9.53242 0.996423L11.8103 2.65521C11.9054 2.72738 11.9803 2.74052 12.0821 2.74052ZM0.808805 13.4074C0.85813 13.4559 0.917114 13.4944 0.982222 13.5204C1.04733 13.5465 1.11722 13.5596 1.18771 13.5589C1.25819 13.5583 1.32782 13.544 1.39242 13.5168C1.45702 13.4896 1.51526 13.4501 1.56365 13.4007L2.63789 12.3713C3.75587 13.1682 5.10966 13.5981 6.5 13.5976C7.94818 13.5976 9.2809 13.1388 10.3618 12.3718L11.4364 13.4012C11.647 13.611 11.9803 13.611 12.1842 13.4076C12.3815 13.2174 12.3882 12.8963 12.1773 12.6994L11.1439 11.7094C12.3358 10.5418 13.0026 8.96836 13 7.33001C13 3.8681 10.09 1.05545 6.5 1.05545C2.91 1.05545 4.12262e-06 3.8681 4.12262e-06 7.32973C-0.00190901 8.9667 0.662101 10.5391 1.8494 11.7091L0.815767 12.6994C0.611826 12.896 0.611536 13.2172 0.808805 13.4074ZM6.5 12.4764C3.5491 12.4764 1.15577 10.1751 1.15577 7.32973C1.15577 4.49106 3.5491 2.18331 6.5 2.18331C9.44394 2.18331 11.8306 4.49106 11.8306 7.32973C11.8306 10.1751 9.44394 12.4764 6.5 12.4764ZM3.40637 8.05115H6.49304C6.75848 8.05115 6.96909 7.85422 6.96909 7.59855V3.62558C6.96948 3.56523 6.95743 3.50541 6.93366 3.44958C6.90989 3.39376 6.87486 3.34304 6.8306 3.30037C6.78635 3.25769 6.73375 3.22391 6.67585 3.20099C6.61795 3.17807 6.55591 3.16646 6.49333 3.16683C6.22788 3.16683 6.02394 3.36991 6.02394 3.62558V7.13952H3.40637C3.13425 7.13952 2.9306 7.34288 2.9306 7.59827C2.9306 7.85422 3.13425 8.05115 3.40637 8.05115Z" fill="black"/>
</svg>

<svg xmlns="http://www.w3.org/2000/svg" width="13" height="14" fill="none"><path fill="#000" d="M.91 2.74a.4.4 0 0 0 .273-.085L3.461.996c.115-.078.177-.183.177-.294 0-.138-.069-.25-.184-.355C3.196.125 2.733 0 2.325 0c-.25-.001-.5.045-.733.137a1.9 1.9 0 0 0-.621.4 1.8 1.8 0 0 0-.414.599 1.8 1.8 0 0 0-.142.706c0 .243.04.485.108.636a.43.43 0 0 0 .388.263m11.172 0c.17 0 .306-.104.388-.262.074-.144.115-.393.115-.636C12.585.82 11.735 0 10.668 0c-.401 0-.863.125-1.122.347-.116.105-.184.217-.184.355 0 .11.062.216.17.294l2.278 1.66c.095.071.17.085.272.085M.81 13.408a.53.53 0 0 0 .379.152.54.54 0 0 0 .376-.158l1.074-1.03A6.66 6.66 0 0 0 6.5 13.598c1.448 0 2.78-.46 3.862-1.226l1.074 1.03c.211.209.544.209.748.006a.486.486 0 0 0-.007-.709l-1.033-.99A6.12 6.12 0 0 0 13 7.33c0-3.462-2.91-6.275-6.5-6.275S0 3.868 0 7.33a6.14 6.14 0 0 0 1.85 4.38l-1.034.99a.49.49 0 0 0-.007.707m5.691-.93c-2.95 0-5.344-2.302-5.344-5.147 0-2.839 2.393-5.147 5.344-5.147 2.944 0 5.33 2.308 5.33 5.147 0 2.845-2.386 5.146-5.33 5.146M3.406 8.05h3.087c.265 0 .476-.197.476-.452V3.626a.44.44 0 0 0-.138-.326.47.47 0 0 0-.338-.133.46.46 0 0 0-.47.459V7.14H3.407a.46.46 0 0 0-.475.458c0 .256.203.453.475.453"/></svg>
